Newaita-dark/apps/16/netflix.svg

<svg height="16" viewBox="0 0 16 16" width="16" xmlns="http://www.w3.org/2000/svg" xmlns:xlink="http://www.w3.org/1999/xlink"><linearGradient id="a" gradientUnits="userSpaceOnUse" x1="7.93826" x2="7.93826" y1="14.0169685" y2="14.67849050002"><stop offset="0" stop-opacity=".27451"/><stop offset="1" stop-opacity="0"/></linearGradient><linearGradient id="b"><stop offset="0" stop-opacity=".313726"/><stop offset=".222222" stop-opacity=".27451"/><stop offset="1" stop-opacity="0"/></linearGradient><radialGradient id="c" cx="450.908936" cy="189.579361" gradientTransform="matrix(.00000009 -.0390662 -.0703192 -.00000005 26.065324 31.797666)" gradientUnits="userSpaceOnUse" r="21.166656" xlink:href="#b"/><radialGradient id="d" cx="450.908936" cy="189.579361" gradientTransform="matrix(-.00000009 .0390662 .0703192 .00000005 -10.188807 -3.763739)" gradientUnits="userSpaceOnUse" r="21.166656" xlink:href="#b"/><radialGradient id="e" cx="450.908936" cy="189.579361" gradientTransform="matrix(-.00000009 -.0390662 .0703192 -.00000005 -10.188807 31.797666)" gradientUnits="userSpaceOnUse" r="21.166656" xlink:href="#b"/><radialGradient id="f" cx="450.908936" cy="189.579361" gradientTransform="matrix(.00000009 .0390662 -.0703192 .00000005 26.065323 -3.76374)" gradientUnits="userSpaceOnUse" r="21.166656" xlink:href="#b"/><linearGradient id="g" gradientUnits="userSpaceOnUse" x1="5.29217449998" x2="5.29217449998" y1="14.0169675" y2="1.44805300003"><stop offset="0" stop-color="#424242"/><stop offset="1" stop-color="#616161"/></linearGradient><linearGradient id="h"><stop offset="0" stop-color="#f44336"/><stop offset="1" stop-color="#ef5350"/></linearGradient><linearGradient id="i" gradientUnits="userSpaceOnUse" x1="720.00011449082" x2="720.00011449082" xlink:href="#h" y1="1415.11822549082" y2="455.11808325459"/><linearGradient id="j" gradientUnits="userSpaceOnUse" x1="10.25358575002" x2="10.25358575002" xlink:href="#h" y1="11.70164025002" y2="3.76337799999"/><linearGradient id="k" gradientUnits="userSpaceOnUse" x1="10.58434899997" x2="10.58434899997" y1="11.70164025002" y2="3.76337799999"><stop offset="0" stop-color="#e57373"/><stop offset="1" stop-color="#ef9a9a"/></linearGradient><path d="m2.976562 13.96875h9.921876v.734375h-9.921876zm0 0" fill="url(#a)"/><path d="m12.898438 14.015625h1.324218v-.660156h-1.324218zm0 0" fill="url(#c)"/><path d="m2.976562 14.015625h-1.324218v.664063h1.324218zm0 0" fill="url(#d)"/><path d="m2.976562 14.015625h-1.324218v-.660156h1.324218zm0 0" fill="url(#e)"/><path d="m12.898438 14.015625h1.324218v.664063h-1.324218zm0 0" fill="url(#f)"/><path d="m2.316406 1.449219h11.246094c.363281 0 .660156.296875.660156.660156v11.246094c0 .367187-.296875.660156-.660156.660156h-11.246094c-.367187 0-.664062-.292969-.664062-.660156v-11.246094c0-.363281.296875-.660156.664062-.660156zm0 0" fill="url(#g)"/><path d="m2.316406 1.449219c-.367187 0-.664062.292969-.664062.660156v.082031c0-.367187.296875-.660156.664062-.660156h11.246094c.363281 0 .660156.292969.660156.660156v-.082031c0-.367187-.296875-.660156-.660156-.660156zm0 0" fill="#e6e6e6" fill-opacity=".392157"/><path d="m2.316406 14.015625c-.367187 0-.664062-.292969-.664062-.660156v-.082031c0 .367187.296875.660156.664062.660156h11.246094c.363281 0 .660156-.292969.660156-.660156v.082031c0 .367187-.296875.660156-.660156.660156zm0 0" fill-opacity=".196078"/><path d="m74.117922-168.629428h359.840637c11.62389 0 21.122983 9.499093 21.122983 21.122983v359.840637c0 11.748878-9.499093 21.122982-21.122983 21.122982h-359.840637c-11.748878 0-21.247971-9.374104-21.247971-21.122982v-359.840637c0-11.62389 9.499093-21.122983 21.247971-21.122983zm0 0" fill="none" stroke="#212121" stroke-linecap="round" stroke-width="3" transform="matrix(.031253 0 0 .031253 0 6.719392)"/><path d="m599.94274 454.917211v960.38078h1.417187c62.82865-26.926564 129.436466-46.294794 198.406261-58.577086v-901.803694zm0 0" fill="url(#i)" stroke="#212121" stroke-width="11.338583" transform="scale(.00826902)"/><path d="m9.261719 3.761719v7.457031c.574219.101562 1.121093.261719 1.644531.484375h.007812v-7.941406zm0 0" fill="url(#j)"/><path d="m9.261719 3.804688v.164062h1.652343v-.164062zm0 0" fill="#fff" fill-opacity=".392157"/><path d="m1120.05058 454.917211v901.803694c69.442191 12.282292 135.577611 31.650522 198.878656 58.577086h.944792v-960.38078zm0 0" fill="none" stroke="#212121" stroke-width="11.338583" transform="scale(.00826902)"/><path d="m4.960938 3.761719 4.015624 7.414062c.675782.089844 1.320313.269531 1.929688.527344h.007812l-4.300781-7.941406zm0 0" fill="url(#k)"/><path d="m4.960938 3.8125.089843.164062h1.5625l4.1875 7.730469c.035157.015625.070313.03125.105469.042969h.007812l-4.300781-7.9375zm0 0" fill="#fff" fill-opacity=".392157"/><path d="m6.613281 6.816406v.234375l2.363281 4.359375c.097657.011719.199219.027344.296876.046875.027343.003907.058593.007813.089843.015625.003907 0 .011719 0 .015625.003906.03125.003907.058594.011719.089844.015626.003906 0 .003906 0 .007812.003906.03125.003906.066407.011718.097657.019531h.011719c.03125.007813.0625.015625.09375.023437.003906 0 .011718 0 .015624.003907.03125.007812.0625.015625.09375.023437h.003907c.03125.007813.0625.015625.09375.023438.003906 0 .007812.003906.011719.003906.03125.007812.0625.015625.09375.023438.003906.003906.007812.003906.015624.003906.027344.007812.058594.019531.089844.027344.003906 0 .007813.003906.011719.003906.03125.007812.0625.019531.097656.027344.027344.011718.058594.019531.089844.03125.007813 0 .011719.003906.015625.003906.03125.007812.058594.019531.089844.03125.003906 0 .011718.003906.015625.003906.03125.011719.058593.019531.089843.03125 0 0 .003907.003906.007813.003906.03125.007813.058594.019532.085937.03125.003907 0 .007813 0 .011719.003906.027344.011719.058594.019532.085938.03125.003906.003907.011719.003907.015625.007813.027344.011719.058594.023437.085937.035156.003907 0 .011719.003907.015625.003907.03125.011718.058594.023437.089844.039062h.007812v-.234375h-.007812c-.03125-.015625-.058594-.027344-.089844-.039063-.003906 0-.011718-.003906-.015625-.003906-.027343-.011718-.058593-.023437-.085937-.035156-.003906-.003906-.011719-.003906-.015625-.007812-.027344-.011719-.058594-.019532-.085938-.03125-.003906 0-.007812-.003907-.011719-.003907-.027343-.011719-.054687-.019531-.085937-.03125-.003906 0-.007813-.003906-.007813-.003906-.03125-.011719-.058593-.019531-.089843-.03125-.003907 0-.011719-.003906-.015625-.003906-.03125-.011719-.058594-.019531-.089844-.03125-.003906 0-.007812-.003907-.015625-.003907-.03125-.011718-.0625-.019531-.089844-.03125-.035156-.007812-.066406-.019531-.097656-.027343-.003906 0-.007813-.003907-.011719-.003907-.03125-.007812-.0625-.015624-.089844-.027343-.007812 0-.011718 0-.015624-.003907-.03125-.007812-.0625-.015624-.09375-.023437-.003907 0-.007813-.003906-.011719-.003906-.03125-.007813-.0625-.015625-.09375-.023438 0 0 0 0-.003907 0-.03125-.007812-.0625-.015625-.09375-.023437-.003906 0-.011718-.003906-.015624-.003906-.03125-.007813-.0625-.015626-.09375-.019532-.003907-.003906-.007813-.003906-.011719-.003906-.03125-.007812-.066407-.015625-.097657-.019531-.003906-.003907-.003906-.003907-.007812-.003907-.03125-.003906-.058594-.011718-.089844-.015624-.003906-.003907-.011718-.003907-.015625-.003907-.03125-.007812-.0625-.011719-.089843-.015625-.097657-.019531-.199219-.035156-.296876-.046875zm0 4.402344c-.570312.101562-1.121093.261719-1.640625.484375h-.011718v.234375h.011718c.519532-.222656 1.070313-.382812 1.640625-.484375zm0 0" fill-opacity=".235294"/><path d="m599.94274 454.917211 485.622942 896.607339c81.724484 10.865105 159.6698 32.595314 233.363554 63.773441h.944792l-520.10784-960.38078zm0 0" fill="none" stroke="#212121" stroke-width="11.338583" transform="scale(.00826902)"/></svg>

<?xml version="1.0" encoding="UTF-8"?>
<svg xmlns="http://www.w3.org/2000/svg" xmlns:xlink="http://www.w3.org/1999/xlink" width="16px" height="16px" viewBox="0 0 16 16" version="1.1">
<defs>
<linearGradient id="linear0" gradientUnits="userSpaceOnUse" x1="254" y1="233.5" x2="254" y2="254.666672" gradientTransform="matrix(0.031253,0,0,0.031253,-0.00000190753,6.719393)">
<stop offset="0" style="stop-color:rgb(0%,0%,0%);stop-opacity:0.27451;"/>
<stop offset="1" style="stop-color:rgb(0%,0%,0%);stop-opacity:0;"/>
</linearGradient>
<radialGradient id="radial0" gradientUnits="userSpaceOnUse" cx="450.908936" cy="189.579361" fx="450.908936" fy="189.579361" r="21.166656" gradientTransform="matrix(0.0000000870852,-0.0390662,-0.0703192,-0.0000000507693,26.065324,31.797666)">
<stop offset="0" style="stop-color:rgb(0%,0%,0%);stop-opacity:0.313726;"/>
<stop offset="0.222222" style="stop-color:rgb(0%,0%,0%);stop-opacity:0.27451;"/>
<stop offset="1" style="stop-color:rgb(0%,0%,0%);stop-opacity:0;"/>
</radialGradient>
<radialGradient id="radial1" gradientUnits="userSpaceOnUse" cx="450.908936" cy="189.579361" fx="450.908936" fy="189.579361" r="21.166656" gradientTransform="matrix(-0.0000000870852,0.0390662,0.0703192,0.0000000507693,-10.188807,-3.763739)">
<stop offset="0" style="stop-color:rgb(0%,0%,0%);stop-opacity:0.313726;"/>
<stop offset="0.222222" style="stop-color:rgb(0%,0%,0%);stop-opacity:0.27451;"/>
<stop offset="1" style="stop-color:rgb(0%,0%,0%);stop-opacity:0;"/>
</radialGradient>
<radialGradient id="radial2" gradientUnits="userSpaceOnUse" cx="450.908936" cy="189.579361" fx="450.908936" fy="189.579361" r="21.166656" gradientTransform="matrix(-0.0000000870852,-0.0390662,0.0703192,-0.0000000507693,-10.188807,31.797666)">
<stop offset="0" style="stop-color:rgb(0%,0%,0%);stop-opacity:0.313726;"/>
<stop offset="0.222222" style="stop-color:rgb(0%,0%,0%);stop-opacity:0.27451;"/>
<stop offset="1" style="stop-color:rgb(0%,0%,0%);stop-opacity:0;"/>
</radialGradient>
<radialGradient id="radial3" gradientUnits="userSpaceOnUse" cx="450.908936" cy="189.579361" fx="450.908936" fy="189.579361" r="21.166656" gradientTransform="matrix(0.0000000870852,0.0390662,-0.0703192,0.0000000507693,26.065323,-3.76374)">
<stop offset="0" style="stop-color:rgb(0%,0%,0%);stop-opacity:0.313726;"/>
<stop offset="0.222222" style="stop-color:rgb(0%,0%,0%);stop-opacity:0.27451;"/>
<stop offset="1" style="stop-color:rgb(0%,0%,0%);stop-opacity:0;"/>
</radialGradient>
<linearGradient id="linear1" gradientUnits="userSpaceOnUse" x1="169.333328" y1="233.5" x2="169.333328" y2="-168.666656" gradientTransform="matrix(0.031253,0,0,0.031253,0,6.719392)">
<stop offset="0" style="stop-color:rgb(25.882354%,25.882354%,25.882354%);stop-opacity:1;"/>
<stop offset="1" style="stop-color:rgb(38.039216%,38.039216%,38.039216%);stop-opacity:1;"/>
</linearGradient>
<linearGradient id="linear2" gradientUnits="userSpaceOnUse" x1="179.916672" y1="159.416672" x2="179.916672" y2="-94.583336" gradientTransform="matrix(3.779528,0,0,3.779528,40.000015,812.59845)">
<stop offset="0" style="stop-color:rgb(95.686275%,26.274511%,21.176471%);stop-opacity:1;"/>
<stop offset="1" style="stop-color:rgb(93.725491%,32.549021%,31.37255%);stop-opacity:1;"/>
</linearGradient>
<linearGradient id="linear3" gradientUnits="userSpaceOnUse" x1="179.916672" y1="159.416672" x2="179.916672" y2="-94.583336" gradientTransform="matrix(0.031253,0,0,0.031253,4.63065,6.719391)">
<stop offset="0" style="stop-color:rgb(95.686275%,26.274511%,21.176471%);stop-opacity:1;"/>
<stop offset="1" style="stop-color:rgb(93.725491%,32.549021%,31.37255%);stop-opacity:1;"/>
</linearGradient>
<linearGradient id="linear4" gradientUnits="userSpaceOnUse" x1="338.666656" y1="159.416672" x2="338.666656" y2="-94.583336" gradientTransform="matrix(0.031253,0,0,0.031253,0,6.719391)">
<stop offset="0" style="stop-color:rgb(89.803922%,45.09804%,45.09804%);stop-opacity:1;"/>
<stop offset="1" style="stop-color:rgb(93.725491%,60.392159%,60.392159%);stop-opacity:1;"/>
</linearGradient>
</defs>
<g id="surface1">
<path style=" stroke:none;fill-rule:nonzero;fill:url(#linear0);" d="M 2.976562 13.96875 L 12.898438 13.96875 L 12.898438 14.703125 L 2.976562 14.703125 Z M 2.976562 13.96875 "/>
<path style=" stroke:none;fill-rule:nonzero;fill:url(#radial0);" d="M 12.898438 14.015625 L 14.222656 14.015625 L 14.222656 13.355469 L 12.898438 13.355469 Z M 12.898438 14.015625 "/>
<path style=" stroke:none;fill-rule:nonzero;fill:url(#radial1);" d="M 2.976562 14.015625 L 1.652344 14.015625 L 1.652344 14.679688 L 2.976562 14.679688 Z M 2.976562 14.015625 "/>
<path style=" stroke:none;fill-rule:nonzero;fill:url(#radial2);" d="M 2.976562 14.015625 L 1.652344 14.015625 L 1.652344 13.355469 L 2.976562 13.355469 Z M 2.976562 14.015625 "/>
<path style=" stroke:none;fill-rule:nonzero;fill:url(#radial3);" d="M 12.898438 14.015625 L 14.222656 14.015625 L 14.222656 14.679688 L 12.898438 14.679688 Z M 12.898438 14.015625 "/>
<path style=" stroke:none;fill-rule:nonzero;fill:url(#linear1);" d="M 2.316406 1.449219 L 13.5625 1.449219 C 13.925781 1.449219 14.222656 1.746094 14.222656 2.109375 L 14.222656 13.355469 C 14.222656 13.722656 13.925781 14.015625 13.5625 14.015625 L 2.316406 14.015625 C 1.949219 14.015625 1.652344 13.722656 1.652344 13.355469 L 1.652344 2.109375 C 1.652344 1.746094 1.949219 1.449219 2.316406 1.449219 Z M 2.316406 1.449219 "/>
<path style=" stroke:none;fill-rule:nonzero;fill:rgb(90.196079%,90.196079%,90.196079%);fill-opacity:0.392157;" d="M 2.316406 1.449219 C 1.949219 1.449219 1.652344 1.742188 1.652344 2.109375 L 1.652344 2.191406 C 1.652344 1.824219 1.949219 1.53125 2.316406 1.53125 L 13.5625 1.53125 C 13.925781 1.53125 14.222656 1.824219 14.222656 2.191406 L 14.222656 2.109375 C 14.222656 1.742188 13.925781 1.449219 13.5625 1.449219 Z M 2.316406 1.449219 "/>
<path style=" stroke:none;fill-rule:nonzero;fill:rgb(0%,0%,0%);fill-opacity:0.196078;" d="M 2.316406 14.015625 C 1.949219 14.015625 1.652344 13.722656 1.652344 13.355469 L 1.652344 13.273438 C 1.652344 13.640625 1.949219 13.933594 2.316406 13.933594 L 13.5625 13.933594 C 13.925781 13.933594 14.222656 13.640625 14.222656 13.273438 L 14.222656 13.355469 C 14.222656 13.722656 13.925781 14.015625 13.5625 14.015625 Z M 2.316406 14.015625 "/>
<path style="fill:none;stroke-width:3;stroke-linecap:round;stroke-linejoin:miter;stroke:rgb(12.941177%,12.941177%,12.941177%);stroke-opacity:1;stroke-miterlimit:4;" d="M 74.117922 -168.629428 L 433.958559 -168.629428 C 445.582449 -168.629428 455.081542 -159.130335 455.081542 -147.506445 L 455.081542 212.334192 C 455.081542 224.08307 445.582449 233.457174 433.958559 233.457174 L 74.117922 233.457174 C 62.369044 233.457174 52.869951 224.08307 52.869951 212.334192 L 52.869951 -147.506445 C 52.869951 -159.130335 62.369044 -168.629428 74.117922 -168.629428 Z M 74.117922 -168.629428 " transform="matrix(0.031253,0,0,0.031253,0,6.719392)"/>
<path style="fill-rule:nonzero;fill:url(#linear2);stroke-width:11.338583;stroke-linecap:butt;stroke-linejoin:miter;stroke:rgb(12.941177%,12.941177%,12.941177%);stroke-opacity:1;stroke-miterlimit:4;" d="M 599.94274 454.917211 L 599.94274 1415.297991 L 601.359927 1415.297991 C 664.188577 1388.371427 730.796393 1369.003197 799.766188 1356.720905 L 799.766188 454.917211 Z M 599.94274 454.917211 " transform="matrix(0.00826902,0,0,0.00826902,0,0)"/>
<path style=" stroke:none;fill-rule:nonzero;fill:url(#linear3);" d="M 9.261719 3.761719 L 9.261719 11.21875 C 9.835938 11.320312 10.382812 11.480469 10.90625 11.703125 L 10.914062 11.703125 L 10.914062 3.761719 Z M 9.261719 3.761719 "/>
<path style=" stroke:none;fill-rule:nonzero;fill:rgb(100%,100%,100%);fill-opacity:0.392157;" d="M 9.261719 3.804688 L 9.261719 3.96875 L 10.914062 3.96875 L 10.914062 3.804688 Z M 9.261719 3.804688 "/>
<path style="fill:none;stroke-width:11.338583;stroke-linecap:butt;stroke-linejoin:miter;stroke:rgb(12.941177%,12.941177%,12.941177%);stroke-opacity:1;stroke-miterlimit:4;" d="M 1120.05058 454.917211 L 1120.05058 1356.720905 C 1189.492771 1369.003197 1255.628191 1388.371427 1318.929236 1415.297991 L 1319.874028 1415.297991 L 1319.874028 454.917211 Z M 1120.05058 454.917211 " transform="matrix(0.00826902,0,0,0.00826902,0,0)"/>
<path style=" stroke:none;fill-rule:nonzero;fill:url(#linear4);" d="M 4.960938 3.761719 L 8.976562 11.175781 C 9.652344 11.265625 10.296875 11.445312 10.90625 11.703125 L 10.914062 11.703125 L 6.613281 3.761719 Z M 4.960938 3.761719 "/>
<path style=" stroke:none;fill-rule:nonzero;fill:rgb(100%,100%,100%);fill-opacity:0.392157;" d="M 4.960938 3.8125 L 5.050781 3.976562 L 6.613281 3.976562 L 10.800781 11.707031 C 10.835938 11.722656 10.871094 11.738281 10.90625 11.75 L 10.914062 11.75 L 6.613281 3.8125 Z M 4.960938 3.8125 "/>
<path style=" stroke:none;fill-rule:nonzero;fill:rgb(0%,0%,0%);fill-opacity:0.235294;" d="M 6.613281 6.816406 L 6.613281 7.050781 L 8.976562 11.410156 C 9.074219 11.421875 9.175781 11.4375 9.273438 11.457031 C 9.300781 11.460938 9.332031 11.464844 9.363281 11.472656 C 9.367188 11.472656 9.375 11.472656 9.378906 11.476562 C 9.410156 11.480469 9.4375 11.488281 9.46875 11.492188 C 9.472656 11.492188 9.472656 11.492188 9.476562 11.496094 C 9.507812 11.5 9.542969 11.507812 9.574219 11.515625 C 9.578125 11.515625 9.582031 11.515625 9.585938 11.515625 C 9.617188 11.523438 9.648438 11.53125 9.679688 11.539062 C 9.683594 11.539062 9.691406 11.539062 9.695312 11.542969 C 9.726562 11.550781 9.757812 11.558594 9.789062 11.566406 C 9.792969 11.566406 9.792969 11.566406 9.792969 11.566406 C 9.824219 11.574219 9.855469 11.582031 9.886719 11.589844 C 9.890625 11.589844 9.894531 11.59375 9.898438 11.59375 C 9.929688 11.601562 9.960938 11.609375 9.992188 11.617188 C 9.996094 11.621094 10 11.621094 10.007812 11.621094 C 10.035156 11.628906 10.066406 11.640625 10.097656 11.648438 C 10.101562 11.648438 10.105469 11.652344 10.109375 11.652344 C 10.140625 11.660156 10.171875 11.671875 10.207031 11.679688 C 10.234375 11.691406 10.265625 11.699219 10.296875 11.710938 C 10.304688 11.710938 10.308594 11.714844 10.3125 11.714844 C 10.34375 11.722656 10.371094 11.734375 10.402344 11.746094 C 10.40625 11.746094 10.414062 11.75 10.417969 11.75 C 10.449219 11.761719 10.476562 11.769531 10.507812 11.78125 C 10.507812 11.78125 10.511719 11.785156 10.515625 11.785156 C 10.546875 11.792969 10.574219 11.804688 10.601562 11.816406 C 10.605469 11.816406 10.609375 11.816406 10.613281 11.820312 C 10.640625 11.832031 10.671875 11.839844 10.699219 11.851562 C 10.703125 11.855469 10.710938 11.855469 10.714844 11.859375 C 10.742188 11.871094 10.773438 11.882812 10.800781 11.894531 C 10.804688 11.894531 10.8125 11.898438 10.816406 11.898438 C 10.847656 11.910156 10.875 11.921875 10.90625 11.9375 L 10.914062 11.9375 L 10.914062 11.703125 L 10.90625 11.703125 C 10.875 11.6875 10.847656 11.675781 10.816406 11.664062 C 10.8125 11.664062 10.804688 11.660156 10.800781 11.660156 C 10.773438 11.648438 10.742188 11.636719 10.714844 11.625 C 10.710938 11.621094 10.703125 11.621094 10.699219 11.617188 C 10.671875 11.605469 10.640625 11.597656 10.613281 11.585938 C 10.609375 11.585938 10.605469 11.582031 10.601562 11.582031 C 10.574219 11.570312 10.546875 11.5625 10.515625 11.550781 C 10.511719 11.550781 10.507812 11.546875 10.507812 11.546875 C 10.476562 11.535156 10.449219 11.527344 10.417969 11.515625 C 10.414062 11.515625 10.40625 11.511719 10.402344 11.511719 C 10.371094 11.5 10.34375 11.492188 10.3125 11.480469 C 10.308594 11.480469 10.304688 11.476562 10.296875 11.476562 C 10.265625 11.464844 10.234375 11.457031 10.207031 11.445312 C 10.171875 11.4375 10.140625 11.425781 10.109375 11.417969 C 10.105469 11.417969 10.101562 11.414062 10.097656 11.414062 C 10.066406 11.40625 10.035156 11.398438 10.007812 11.386719 C 10 11.386719 9.996094 11.386719 9.992188 11.382812 C 9.960938 11.375 9.929688 11.367188 9.898438 11.359375 C 9.894531 11.359375 9.890625 11.355469 9.886719 11.355469 C 9.855469 11.347656 9.824219 11.339844 9.792969 11.332031 C 9.792969 11.332031 9.792969 11.332031 9.789062 11.332031 C 9.757812 11.324219 9.726562 11.316406 9.695312 11.308594 C 9.691406 11.308594 9.683594 11.304688 9.679688 11.304688 C 9.648438 11.296875 9.617188 11.289062 9.585938 11.285156 C 9.582031 11.28125 9.578125 11.28125 9.574219 11.28125 C 9.542969 11.273438 9.507812 11.265625 9.476562 11.261719 C 9.472656 11.257812 9.472656 11.257812 9.46875 11.257812 C 9.4375 11.253906 9.410156 11.246094 9.378906 11.242188 C 9.375 11.238281 9.367188 11.238281 9.363281 11.238281 C 9.332031 11.230469 9.300781 11.226562 9.273438 11.222656 C 9.175781 11.203125 9.074219 11.1875 8.976562 11.175781 Z M 6.613281 11.21875 C 6.042969 11.320312 5.492188 11.480469 4.972656 11.703125 L 4.960938 11.703125 L 4.960938 11.9375 L 4.972656 11.9375 C 5.492188 11.714844 6.042969 11.554688 6.613281 11.453125 Z M 6.613281 11.21875 "/>
<path style="fill:none;stroke-width:11.338583;stroke-linecap:butt;stroke-linejoin:miter;stroke:rgb(12.941177%,12.941177%,12.941177%);stroke-opacity:1;stroke-miterlimit:4;" d="M 599.94274 454.917211 L 1085.565682 1351.52455 C 1167.290166 1362.389655 1245.235482 1384.119864 1318.929236 1415.297991 L 1319.874028 1415.297991 L 799.766188 454.917211 Z M 599.94274 454.917211 " transform="matrix(0.00826902,0,0,0.00826902,0,0)"/>
</g>
</svg>
